static/img/kroki/31d4ef1695fbda9278c2cfda3098b43c.svg

<?xml version="1.0" encoding="us-ascii" standalone="no"?><svg xmlns="http://www.w3.org/2000/svg" xmlns:xlink="http://www.w3.org/1999/xlink" contentStyleType="text/css" height="152px" preserveAspectRatio="none" style="width:213px;height:152px;" version="1.1" viewBox="0 0 213 152" width="213px" zoomAndPan="magnify"><defs/><g><!--class gcp_firewall_policy--><g id="elem_gcp_firewall_policy"><rect codeLine="23" fill="#3D176E" height="39.7891" id="gcp_firewall_policy" rx="2.5" ry="2.5" style="stroke:#000D19;stroke-width:0.5;" width="199" x="7" y="7"/><ellipse cx="22" cy="26.8945" fill="#ADD1B2" rx="11" ry="11" style="stroke:#181818;stroke-width:1.0;"/><path d="M24.9688,32.5352 Q24.3906,32.832 23.75,32.9727 Q23.1094,33.1289 22.4063,33.1289 Q19.9063,33.1289 18.5781,31.4883 Q17.2656,29.832 17.2656,26.707 Q17.2656,23.582 18.5781,21.9258 Q19.9063,20.2695 22.4063,20.2695 Q23.1094,20.2695 23.75,20.4258 Q24.4063,20.582 24.9688,20.8789 L24.9688,23.5977 Q24.3438,23.0195 23.75,22.7539 Q23.1563,22.4727 22.5313,22.4727 Q21.1875,22.4727 20.5,23.5508 Q19.8125,24.6133 19.8125,26.707 Q19.8125,28.8008 20.5,29.8789 Q21.1875,30.9414 22.5313,30.9414 Q23.1563,30.9414 23.75,30.6758 Q24.3438,30.3945 24.9688,29.8164 L24.9688,32.5352 Z " fill="#000000"/><text fill="#D9B8FF" font-family="Helvetica" font-size="17" lengthAdjust="spacing" textLength="157" x="41" y="32.7798">gcp_firewall_policy</text></g><!--class gcp_network--><g id="elem_gcp_network"><rect codeLine="26" fill="#3D176E" height="39.7891" id="gcp_network" rx="2.5" ry="2.5" style="stroke:#000D19;stroke-width:0.5;" width="149" x="32" y="106.79"/><ellipse cx="47" cy="126.6845" fill="#ADD1B2" rx="11" ry="11" style="stroke:#181818;stroke-width:1.0;"/><path d="M49.9688,132.3252 Q49.3906,132.622 48.75,132.7627 Q48.1094,132.9189 47.4063,132.9189 Q44.9063,132.9189 43.5781,131.2783 Q42.2656,129.622 42.2656,126.497 Q42.2656,123.372 43.5781,121.7158 Q44.9063,120.0595 47.4063,120.0595 Q48.1094,120.0595 48.75,120.2158 Q49.4063,120.372 49.9688,120.6689 L49.9688,123.3877 Q49.3438,122.8095 48.75,122.5439 Q48.1563,122.2627 47.5313,122.2627 Q46.1875,122.2627 45.5,123.3408 Q44.8125,124.4033 44.8125,126.497 Q44.8125,128.5908 45.5,129.6689 Q46.1875,130.7314 47.5313,130.7314 Q48.1563,130.7314 48.75,130.4658 Q49.3438,130.1845 49.9688,129.6064 L49.9688,132.3252 Z " fill="#000000"/><text fill="#D9B8FF" font-family="Helvetica" font-size="17" lengthAdjust="spacing" textLength="107" x="66" y="132.5698">gcp_network</text></g><!--link gcp_firewall_policy to gcp_network--><g id="link_gcp_firewall_policy_gcp_network"><path codeLine="29" d="M106.5,47.22 C106.5,64.36 106.5,83.27 106.5,100.41 " fill="none" id="gcp_firewall_policy-to-gcp_network" style="stroke:#1A83AF;stroke-width:2.0;"/><polygon fill="#1A83AF" points="106.5,106.41,110.5,97.41,106.5,101.41,102.5,97.41,106.5,106.41" style="stroke:#1A83AF;stroke-width:2.0;"/></g><!--SRC=[XP1FJuGm4CNlV8ecd3S1YG8N4vPaevUDSRqPiobq2Wsb9TEk18tVNH4r5VRFzRtVpBmtjM10eEtiG5fe2q3ZcKQeZY9jIOQe-rnBZSJddF8edfiRhUn5O4jR87SWNy6Aaiw9frgKZG9Zo9LZhMdPLAWFYathBL9blYnGrg5oIOt9h4LH72muOLXQ99pFoVbIFs9XV0CBJ2C3_462861XEaSkdZhR-u_OYJSWeVkqhRQmYBauyKsTJJaIJiX5qL__PCO7ofXG5RbsjCSf4oh0V_gkfapt8ysfDEuPOm51sw63VD4AqeJn-2XyVmhsol5rf2gxFHS8FPLotsafoe6yUzw7OokmlSPcae_ngsS_p98esxoiRjq9xnC0]--></g></svg>

<svg xmlns="http://www.w3.org/2000/svg" width="213" height="152" viewBox="0 0 213 152"><rect width="199" height="39.789" x="7" y="7" fill="#3D176E" rx="2.5" ry="2.5" style="stroke:#000d19;stroke-width:.5"/><circle cx="22" cy="26.895" r="11" fill="#ADD1B2" style="stroke:#181818;stroke-width:1"/><path d="M24.969 32.535q-.578.297-1.219.438-.64.156-1.344.156-2.5 0-3.828-1.64-1.312-1.657-1.312-4.782t1.312-4.781q1.328-1.656 3.828-1.656.703 0 1.344.156.656.156 1.219.453v2.719q-.625-.578-1.219-.844-.594-.281-1.219-.281-1.343 0-2.031 1.078-.687 1.062-.687 3.156t.687 3.172q.688 1.062 2.031 1.062.625 0 1.219-.265.594-.281 1.219-.86z"/><text x="41" y="32.78" fill="#D9B8FF" font-family="Helvetica" font-size="17" textLength="157">gcp_firewall_policy</text><rect width="149" height="39.789" x="32" y="106.79" fill="#3D176E" rx="2.5" ry="2.5" style="stroke:#000d19;stroke-width:.5"/><circle cx="47" cy="126.684" r="11" fill="#ADD1B2" style="stroke:#181818;stroke-width:1"/><path d="M49.969 132.325q-.578.297-1.219.438-.64.156-1.344.156-2.5 0-3.828-1.64-1.312-1.657-1.312-4.782t1.312-4.781q1.328-1.656 3.828-1.656.703 0 1.344.156.656.156 1.219.453v2.719q-.625-.579-1.219-.844-.594-.281-1.219-.281-1.343 0-2.031 1.078-.687 1.062-.687 3.156t.687 3.172q.688 1.062 2.031 1.062.625 0 1.219-.265.594-.281 1.219-.86z"/><text x="66" y="132.57" fill="#D9B8FF" font-family="Helvetica" font-size="17" textLength="107">gcp_network</text><path fill="none" d="M106.5 47.22v53.19" style="stroke:#1a83af;stroke-width:2"/><path fill="#1A83AF" d="m106.5 106.41 4-9-4 4-4-4z" style="stroke:#1a83af;stroke-width:2"/></svg>
